X: 28777
T: My Love Is In America
R: strathspey
M: 4/4
K: Dmajor
|:G/|F>^EF>G A>B=c>A|A<dd>c A<dd>G|F2 F>G A>Bc<A|G>BA>G F<DD3/2:|
g/|f>de>d f2 (3fed|A<dd>c A<dd>g|f2 e>d f>de<d|c>A^G>A E<DD>g|
(3fgf e>d (3fed e>d|A<dd>c A2 d>e|f>ga>g f>d (3fed|c>A (3A^GA E<DD3/2||

